X:1
T:Tralee Gaol
L:1/8
Q:1/4=110
M:2/4
K:G
"Am" A z A z |"Am" A z A z |"Am" A z A z |"G" E z E z |
"Am" A z A z |"Am"A z A z |"G" G z"Em" E z |"Am" A z A z ::
"Am"!<(! [Ae]3 z |"G" [Bd]3 z |"Em" [cg]3 z |"G" [Gd]3 z!<)! |
"Am" [Ae]3 z |"G" [Bd]3 z |"F" [=F=c]2"Em" [EB]2 |"Am"A3 z :|
